htaccess/icons/info.svg

<svg height="100" viewBox="0 0 100 100" width="100" xmlns="http://www.w3.org/2000/svg"><path d="m67.75 0h-49.917c-2.761 0-5 2.239-5 5v90c0 2.761 2.239 5 5 5h65.333c2.761 0 5-2.239 5-5v-74.583z" fill="#0091ff"/><g fill="#fff"><path d="m67.75 15.417c0 2.761 2.239 5 5 5h15.417l-20.417-20.417z" opacity=".3"/><path d="m55.468 46.472v25.568c0 1.992.145 3.317.434 3.978.289.66.718 1.153 1.285 1.477s1.604.485 3.109.485v1.251h-15.459v-1.251c1.551 0 2.594-.15 3.127-.451.532-.3.955-.799 1.268-1.493.312-.696.469-2.027.469-3.995v-12.264c0-3.45-.104-5.685-.313-6.705-.162-.741-.417-1.256-.764-1.546-.347-.289-.822-.434-1.424-.434-.649 0-1.436.174-2.363.521l-.486-1.251 9.589-3.891h1.528zm-2.884-13.275c.973 0 1.8.342 2.484 1.025.683.684 1.025 1.511 1.025 2.484 0 .972-.343 1.806-1.025 2.501-.684.695-1.511 1.042-2.484 1.042s-1.807-.347-2.502-1.042-1.042-1.529-1.042-2.501c0-.973.341-1.801 1.025-2.484.683-.683 1.523-1.025 2.519-1.025z"/></g></svg>

<svg version="1.1" xmlns="http://www.w3.org/2000/svg" xmlns:xlink="http://www.w3.org/1999/xlink" width="100px" height="100px" viewBox="0 0 100 100" xml:space="preserve">
<path fill="#0091FF" d="M67.75,0H17.833c-2.761,0-5,2.239-5,5v90c0,2.761,2.239,5,5,5h65.333c2.761,0,5-2.239,5-5V20.417L67.75,0z"
	/>
<path opacity="0.3" fill="#FFFFFF" d="M67.75,15.417c0,2.761,2.239,5,5,5h15.417L67.75,0V15.417z"/>
<path fill="#FFFFFF" d="M55.468,46.472V72.04c0,1.992,0.145,3.317,0.434,3.978c0.289,0.66,0.718,1.153,1.285,1.477
	c0.567,0.324,1.604,0.485,3.109,0.485v1.251H44.837V77.98c1.551,0,2.594-0.15,3.127-0.451c0.532-0.3,0.955-0.799,1.268-1.493
	c0.312-0.696,0.469-2.027,0.469-3.995V59.777c0-3.45-0.104-5.685-0.313-6.705c-0.162-0.741-0.417-1.256-0.764-1.546
	c-0.347-0.289-0.822-0.434-1.424-0.434c-0.649,0-1.436,0.174-2.363,0.521l-0.486-1.251l9.589-3.891H55.468z M52.584,33.197
	c0.973,0,1.8,0.342,2.484,1.025c0.683,0.684,1.025,1.511,1.025,2.484c0,0.972-0.343,1.806-1.025,2.501
	c-0.684,0.695-1.511,1.042-2.484,1.042c-0.973,0-1.807-0.347-2.502-1.042c-0.695-0.695-1.042-1.529-1.042-2.501
	c0-0.973,0.341-1.801,1.025-2.484C50.748,33.539,51.588,33.197,52.584,33.197z"/>
</svg>
